!!!!SEGMENT: pl-wn--mus-iii-163-891--002_zelenski-wladyslaw--deux-morceaux-de-salon-op-11-nocturne.krn
!!!cenid: 18xx:3675
!!!COM: Żeleński, Władysław
!!!COM-rismID: pe41024455
!!!CDT: 1837/07/06-1921/01/23
!!!CNT: Polish
!!!GTL: Deux morceaux de salon op. 11
!!!OTL: Nocturne
!!!OMV: 002
!!!PDT:
!!!AGN:
!!!SMS-siglum: PL-Wn
!!!SMS-shelfmark: Mus.III.163.891
!!!SMS-shelfwork: 001-002 G
!!!SMS-variant:
!!!SMS-altvar:
!!!NIFC-rismSourceID:
!!!NIFC-rismChildID:
!!!NIFC-islandoraID: none
!!!URL-pdf-islandora:
!!!URL-scan: https://polona2.pl/item/deux-morceaux-de-salon-pour-piano-op-11,NDg5MjY3NzI/0 @EN{Scan on Polona} @PL{Skany w portalu Polona}
!!!IIIF: https://polona2.pl/iiif/item/NDg5MjY3NzI/manifest.json
!!!ONB-nifc:
!!!OMD: Andante cantabile.
!!!AIN: 1 piano
!!!key: E
**kern	**kern	**dynam
*part1	*part1	*part1
*staff2	*staff1	*
*I"PIANO	*I"PIANO	*
*Ipiano	*Ipiano	*
*ICklav	*ICklav	*
*clefF4	*clefG2	*
*k[f#c#g#d#]	*k[f#c#g#d#]	*
*E:	*E:	*
*M4/4	*M4/4	*
*met(c)	*met(c)	*
=1	=1	=1
*xywh-6:544,375,2529,967	*xywh-6:544,375,2529,967	*
*ped	*	*
4EE/	2ee\	p
*Xped	*	*
4g# 4B\	.	.
*ped	*	*
4DD#/	4.b\	.
*Xped	*	*
4f# 4B\	.	.
.	8a/	.
=2	=2	=2
*ped	*	*
4EE/	2g#/	<
*Xped	*	*
4e 4B\	.	.
.	8qqe/L	.
.	8qqg#/	.
.	8qqb/	.
.	8qqee/	.
.	8qqgg#/J	.
*ped	*	*
4BBB#X/	4.gg#\	[
*Xped	*	*
4f# 4d# 4A\	.	.
.	8ff#\	.
=3	=3	=3
*ped	*	*
4CC#/	2ee\	.
*Xped	*	*
4e 4c# 4G#\	.	.
*ped	*Xtuplet	*
4AAA/	12eeM\L	.
.	12dd#\	.
.	12ee\J	.
*Xped	*	*
4e 4cn 4A\	12gg#\L	.
.	12ff#\	.
.	12a\J	.
=4	=4	=4
*ped	*	*
4EE/	2g#/	<
4e 4B 4E\	.	.
.	8qqe/L	.
.	8qqg#/	.
.	8qqb/	.
.	8qqee/	.
.	8qqgg#/J	.
4GG#/	4.bb\	[
*Xped	*	*
4e 4B 4G#\	.	.
.	8ee\	.
=5	=5	=5
*	*^	*
*	*	*xywh-6:544,375,2529,967	*
4FF#/	8dd#/	8dd#\L	>
!	!LO:TX:b:i:t=con anima.	!	!
.	4aa/	8cc#\	.
4B 4F#\	.	8b\	.
.	8dd#/	8a\J	]
4CC#/	2ee/	8a\L	.
.	.	8g#\	.
4c# 4G# 4C#\	.	8f#\	.
.	.	8e\J	.
!!LO:LB:g=original
=6	=6	=6	=6
*xywh-6:517,1291,2488,614	*xywh-6:517,1291,2488,614	*xywh-6:517,1291,2488,614	*
4GG#/	8dd#/	8dd#\L	.
.	4bb/	8ddn\	sf
4e#X 4B 4G#\	.	8cc#\	.
.	8ee#X/	8b\J	.
4FF#/	4ff#/	8b\L	<
.	.	8a#X\	.
4en 4c# 4A#X 4F#\	4cc#/	8g#\	.
.	.	8f#\J	.
=7	=7	=7	=7
4BBB/	4ee/	(8g#\L	.
.	.	8f#\J)	[
4B 4E\	[4g#/	(8f#\L	.
.	.	8e\J)	.
4BBB/	8g#/L]	2e\	.
.	8an/	.	.
4G# 4BB\	8b/	.	.
.	8b#X/J	.	.
=8	=8	=8	=8
4BBB/	4cc#/	(8e\L	.
.	.	8d#\J)	.
4A 4BB\	[4f#/	(8d#\L	.
.	.	8c#\J)	.
4BBB/	8f#/L]	4B\	>
.	8g#/	.	.
4F# 4BB\	8a/	4d#\	.
.	8b/J	.	]
*	*v	*v	*
=9	=9	=9
.	8qqB/L	.
.	8qqe/	.
.	8qqb/J	.
*ped	*	*
4EE/	2ee\	p
*Xped	*	*
4g#: 4e: 4B: 4E:\	.	.
*ped	*	*
4DD#/	4.b\	.
*Xped	*	*
4f#: 4B: 4F#: 4D#:\	.	.
.	8a/	.
=10	=10	=10
*ped	*	*
4EE/	2g#/	<
4b: 4e: 4B: 4E:\	.	.
.	8qqe/L	.
.	8qqg#/	.
.	8qqb/	.
.	8qqee/	.
.	8qqgg#/J	.
4BBB#X/	4.gg#\	[
*clefG2	*	*
*Xped	*	*
4dd#: 4f#: 4d#: 4A:/	.	.
.	8ff#\	.
*clefF4	*	*
!!LO:LB:g=original
=11	=11	=11
*xywh-6:496,1874,2520,603	*xywh-6:496,1874,2520,603	*
*ped	*	*
4CC#/	[2.ee\	.
*Xped	*	*
*clefG2	*	*
4cc#: 4g#: 4e: 4c#: 4G#:/	.	.
*ped	*	*
*clefF4	*	*
!	!LO:TX:b:i:t=veloce.	!
4AAA/	.	.
*clefG2	*	*
.	8qqee\L]	pp >
.	8qqff#\	.
.	8qqee\	.
.	8qqdd#\	.
.	8qqee\	.
.	8qqeee\	.
.	8qqcccn\	.
.	8qqaa\	.
.	8qqff#\	.
.	8qqee\	.
.	8qqdd#\	.
.	8qqee\J	.
4ccn: 4f#: 4e: 4cn: 4A:/	12gg#\L	.
*Xped	*	*
.	12ff#\	.
.	12a\J	]
*clefF4	*	*
=12	=12	=12
*ped	*	*
4EE/	2g#/	<
4b: 4e: 4B: 4E:\	.	.
.	8qqe/L	.
.	8qqg#/	.
.	8qqb/	.
.	8qqee/	.
.	8qqgg#/J	.
4GG#/	4.bb\	.
*Xped	*	*
4b: 4e: 4B: 4E:\	.	[
.	8ee\	.
=13	=13	=13
.	8qee/	.
4E\	8gg#\	pp
.	4ccn^\	.
4gn 4cn 4Gn\	.	.
.	[8b\	.
4E\	8b\L]	.
.	8a#X\	.
4f# 4c#X 4A#X\	8b\	.
.	8cc#X\J	.
=14	=14	=14
.	8qcc#/	.
4D#\	8ff#\	.
.	4b^\	.
4f# 4B 4F#\	.	.
.	(8a#X\	.
4E-X\	8b-X\L)	.
.	8an\	.
4fn 4cn 4An\	8b-\	.
.	8ccn\J	.
!!LO:LB:g=original
=15	=15	=15
*xywh-6:478,2439,2547,537	*xywh-6:478,2439,2547,537	*
.	8qccn/	.
!	!	!LO:HP:t=crescendo.
4Dn\	8ffn\	<
.	4b-X^\	.
4fn 4B-X 4Fn\	.	.
.	8an\	.
4D\	8a\L	.
.	8g#X\	.
4en 4Bn 4G#X\	8a\	.
.	8bn\J	.
=16	=16	=16
.	8qb/	.
*^	*	*
*	*xywh-6:478,2439,2547,537	*	*
4Cn/	2ryy	8ee\	.
.	.	4f#/	>
4cn 4A\	.	.	.
.	.	4e/	]
!LO:N:vis=2	!	!	!
4BB/	2BB\	.	.
!	!	!	!LO:HP:t=dim.
.	.	4d#/	>
4A/	.	.	.
.	.	8b\	.
*v	*v	*	*
=17	=17	=17
*	*^	*
*	*	*xywh-6:478,2439,2547,537	*
4EE/	4e 4G#/	2ryy	.
8.G#\L	4r	.	.
!LO:TUP:a:problem=klamra łukowa	!	!	!
48E\LL	.	.	.
48C#\	.	.	.
48BB\JJJ	.	.	.
4AA#X/	4r	4ryy	sf
4AAn/	8.ff#/L	4f#\	<
*	*tuplet	*	*
!	!LO:TUP:b:problem=klamra łukowa	!	!
.	48ee/LL	.	.
.	48dd#/	.	.
.	48cc#/JJJ	.	.
=18	=18	=18	=18
4GG#/	[2gg#/	(8cc#\L	.
.	.	8b#X\	.
4f# 4d# 4G#\	.	8cc#\	.
.	.	8dd#\J	[
4C#/	8gg#/]	8ff#\)	.
!	!LO:TX:b:i:t=piangando.	!	!
.	(<8qee/	.	.
.	8gg#L 8ee\)	8ryy	>
.	(<8qee/	.	.
4e 4G#\	8gg# 8dd#\)	4ryy	.
.	(<8qqcc#/	.	.
.	8gg#J 8cc#\)	.	]
=19	=19	=19	=19
.	.	(<8qcc#/	.
4AA/	4ccc#/	4cc#\)	.
8.c#\L	4r	4ryy	.
!LO:TUP:a:problem=klamra łukowa	!	!	!
48A\LL	.	.	.
48F#\	.	.	.
48E\JJJ	.	.	.
4D#X\	4r	4ryy	.
4Dn\	8.bb/L	4b\	sf <
!	!LO:TUP:b:problem=klamra łukowa	!	!
.	48aa/LL	.	.
.	48gg#/	.	.
.	48ff#/JJJ	.	.
!!LO:LB:g=original
=20	=20	=20	=20
*xywh-6:507,2979,2527,657	*xywh-6:507,2979,2527,657	*xywh-6:507,2979,2527,657	*
4C#/	[2ccc#/	(8ff#\L	.
.	.	8ee#X\	.
*clefG2	*	*	*
4b 4g# 4c#/	.	8ff#\	.
.	.	8gg#\J	.
*clefF4	*	*	*
!	!LO:TX:b:i:t=piangendo.	!	!
4FF#/	8ccc#/]	8bb\)	[
.	(<8qaa/	.	.
.	8ccc#L 8aa\)	8ryy	>
*clefG2	*	*	*
.	(<8qgg#/	.	.
4a 4c#/	8ccc# 8gg#\)	8ryy	.
.	(<8qff#/	.	.
.	8ccc#J 8ff#\)	8ryy	]
*clefF4	*	*	*
=21	=21	=21	=21
.	(<8qff#/	.	.
*ped	*	*	*
8.FF#/L	8fff# 8ff#\)	2ryy	pp
.	8r	.	.
!LO:TUP:b:problem=klamra łukowa	!	!	!
48C#/LL	.	.	.
48F#/	.	.	.
48A/JJJ	.	.	.
*clefG2	*	*	*
8.c#/L	4r	.	.
!LO:TUP:b:problem=klamra łukowa	!	!	!
48f#/LL	.	.	.
*Xped	*	*	*
48g#/	.	.	.
48a/JJJ	.	.	.
*ped	*	*	*
8.g#/L	16r	16ryy	.
.	16b/LL	[8.b\	<
.	16cc#/	.	.
!LO:TUP:b:problem=klamra łukowa	!	!	!
48e#X/LL	16ddn/JJ	.	.
48dn/	.	.	.
48B/JJJ	.	.	.
*clefF4	*	*	*
8.G#\L	8gg#/	8b\]	[
.	16r	8ryy	.
!LO:TUP:a:problem=klamra łukowa	!LO:TX:t=P:problem=cross-measure beam	!	!
48E#X\LL	(16ddKL 16b/	.	.
*Xped	*	*	*
48Dn\	.	.	.
48BB\JJJ	.	.	>
=22	=22	=22	=22
*ped	*	*	*
8.FF#/L	8cc#J 8aJ/)	2ryy	]
.	8r	.	.
!LO:TUP:b:problem=klamra łukowa	!	!	!
48C#/LL	.	.	.
48F#/	.	.	.
48A/JJJ	.	.	.
*clefG2	*	*	*
8.c#/L	4r	.	.
!LO:TUP:b:problem=klamra łukowa	!	!	!
48f#/LL	.	.	.
*Xped	*	*	*
48g#/	.	.	.
48a/JJJ	.	.	.
*ped	*	*	*
8.g#/L	16r	16ryy	.
.	16b/LL	[8.b\	<
.	16cc#/	.	.
!LO:TUP:b:problem=klamra łukowa	!	!	!
48e#X/LL	16ddn/JJ	.	.
48dn/	.	.	.
48B/JJJ	.	.	.
*clefF4	*	*	*
8.G#\L	8gg#/	8b\]	[
.	16r	8ryy	>
!LO:TUP:a:problem=klamra łukowa	!LO:TX:t=P:problem=cross-measure beam	!	!
48E#X\LL	(16ddKL 16b/	.	.
*Xped	*	*	*
48Dn\	.	.	]
48BB\JJJ	.	.	.
!!LO:PB:g=original
=23	=23	=23	=23
*	*	*	*^
*xywh-7:411,361,2560,794	*xywh-7:411,361,2560,794	*xywh-7:411,361,2560,794	*	*
*ped	*	*	*	*
8.FF#/L	8cc#J 8a^</)	2ryy	.	.
.	8r	.	.	.
!LO:TUP:b:problem=klamra łukowa	!	!	!	!
48C#/LL	.	.	.	.
48F#/	.	.	.	.
48A/JJJ	.	.	.	.
*clefG2	*	*	*	*
8.c#/L	4r	.	.	.
!LO:TUP:b:problem=klamra łukowa	!	!	!	!LO:HP:t=crescendo e stringendo.
48f#/LL	.	.	<	<
48g#/	.	.	.	.
*Xped	*	*	*	*
48a/JJJ	.	.	.	.
8.a#X/L	16r	16ryy	<	.
.	16cc#/LL	[8.cc#\	.	.
.	16dd#/	.	.	.
*ped	*	*	*	*
!LO:TUP:b:problem=klamra łukowa	!	!	!	!
48f##X/LL	16ee/JJ	.	.	.
48e/	.	.	.	.
48c#/JJJ	.	.	.	.
*clefF4	*	*	*	*
8.A#X\L	8aa#X/	8cc#\]	[	.
.	16r	8ryy	.	.
!LO:TUP:a:problem=klamra łukowa	!LO:TX:t=P:problem=cross-measure beam	!	!	!
48F##X\LL	(16eeKL 16cc#/	.	>	.
48E\	.	.	.	.
*Xped	*	*	*	*
48C#\JJJ	.	.	.	.
*	*	*	*v	*v
=24	=24	=24	=24
*ped	*	*	*
8.GG#/L	8dd#J 8b/)	2ryy	]
.	8r	.	.
!LO:TUP:b:problem=klamra łukowa	!	!	!
48D#/LL	.	.	.
48G#/	.	.	.
48B/JJJ	.	.	.
*clefG2	*	*	*
8.d#/L	4r	.	.
!LO:TUP:b:problem=klamra łukowa	!	!	!
48g#/LL	.	.	.
*Xped	*	*	*
48a#X/	.	.	.
48b/JJJ	.	.	.
*ped	*	*	*
8.a#/L	16r	16ryy	<
.	16cc#/LL	[8.cc#\	.
.	16dd#/	.	.
!LO:TUP:b:problem=klamra łukowa	!	!	!
48f##X/LL	16ee/JJ	.	.
48e/	.	.	.
48c#/JJJ	.	.	.
*clefF4	*	*	*
8.A#X\L	8aa#X/	8cc#\]	[
.	16r	8ryy	.
!LO:TUP:a:problem=klamra łukowa	!LO:TX:t=P:problem=cross-measure beam	!	!
48F##X\LL	(16eeKL 16cc#/	.	>
48E\	.	.	.
*Xped	*	*	*
48C#\JJJ	.	.	.
!!LO:LB:g=original
=25	=25	=25	=25
*xywh-7:382,1098,2546,662	*xywh-7:382,1098,2546,662	*xywh-7:382,1098,2546,662	*
*ped	*	*	*
8.GG#/L	8dd#J 8b/)	2ryy	.
.	8r	.	]
!LO:TUP:b:problem=klamra łukowa	!	!	!
48D#/LL	.	.	.
48G#/	.	.	.
48B/JJJ	.	.	.
*clefG2	*	*	*
8.d#/L	4r	.	.
!LO:TUP:b:problem=klamra łukowa	!	!	!
48g#/LL	.	.	.
*Xped	*	*	*
48a#X/	.	.	.
48b/JJJ	.	.	.
*ped	*	*	*
8.dd#/L	16r	16ryy	.
.	16ff#/LL	[8.ff#\	<
.	16gg#/	.	.
!LO:TUP:b:problem=klamra łukowa	!	!	!
48b#X/LL	16aan/JJ	.	.
48an/	.	.	.
48f#/JJJ	.	.	.
*clefF4	*	*	*
8.d#\L	8ddd#/	8ff#\]	[
.	16r	8ryy	.
!LO:TUP:a:problem=klamra łukowa	!LO:TX:t=P:problem=cross-measure beam	!	!
48B#X\LL	(16aaKL 16ff#\	.	>
*Xped	*	*	*
48An\	.	.	.
48F#\JJJ	.	.	.
=26	=26	=26	=26
*ped	*	*	*
8.C#\L	8gg#J 8ee\)	2ryy	.
.	8r	.	]
!LO:TUP:a:problem=klamra łukowa	!	!	!LO:HP:t=ritenuto un poco e dimin.
48G#\LL	.	.	>
48c#\	.	.	.
48e\JJJ	.	.	.
*clefG2	*	*	*
8.g#/L	4r	.	.
!LO:TUP:b:problem=klamra łukowa	!	!	!
48cc#/LL	.	.	.
*Xped	*	*	*
48dd#/	.	.	.
48ee/JJJ	.	.	.
*ped	*	*	*
8.dd#/L	16r	16ryy	<
.	16ff#/LL	[8.ff#\	.
.	16gg#/	.	.
!LO:TUP:b:problem=klamra łukowa	!	!	!
48b#X/LL	16aa/JJ	.	.
48a/	.	.	.
48f#/JJJ	.	.	.
*clefF4	*	*	*
8.d#\L	8ddd#/	8ff#\]	[
.	16r	8ryy	.
!LO:TUP:a:problem=klamra łukowa	!LO:TX:t=P:problem=cross-measure beam	!	!
48B#X\LL	16aaKL 16ff#\	.	>
48A\	.	.	.
*Xped	*	*	*
48F#\JJJ	.	.	.
*	*v	*v	*
=27	=27	=27
!	!LO:TX:a:B:t=a tempo.	!
4C#/	8gg#J 8ee\	]
!	!	!LO:HP:a
.	4dd#\	>
4e 4G#\	.	.
.	[8cc#\	]
4F#\	8cc#\L]	.
.	8b#X\	.
4g# 4d# 4B#X\	8cc#\	.
.	8dd#\J	.
!!LO:LB:g=original
=28	=28	=28
*xywh-7:418,1722,2542,630	*xywh-7:418,1722,2542,630	*
.	8qdd#/	.
4E\	8gg#\	.
.	4cc#^\	.
4g# 4c# 4G#\	.	.
.	[8bn\	.
4E\	8b/L]	.
.	8a#X/	.
4f# 4c# 4A#X\	8b/	.
.	8cc#/J	.
=29	=29	=29
.	8qcc#/	.
4D#\	8ff#\	.
.	4b^\	.
4f# 4B 4F#\	.	.
.	[8a#X\	.
!	!	!LO:HP:t=crescendo e cantando.
4EE/	8a#\L]	<
.	8f##X\	.
4c# 4B 4G#\	8g#\	.
.	8dd#\J	.
=30	=30	=30
*ped	*	*
4EE#X/	[2cc#\	.
*Xped	*	*
4c# 4B 4G#\	.	.
4FF#/	8cc#\L]	.
.	8a#X\	.
4d# 4B 4F#\	8b\	.
.	8ee\J	.
=31	=31	=31
*ped	*	*
4FF##X/	[2dd#\	.
*Xped	*	*
4d# 4c# 4A#X\	.	.
4GG#/	8dd#\L]	.
.	8a#X\	.
4d# 4B 4G#\	8b\	.
.	8aa#X\J	.
=32	=32	=32
!	!LO:TUP:a:problem=klamra łukowa	!
4C# 4CC#/	28gg#\LL	pp
.	28aa#X\	.
!	!LO:TX:b:i:t=leggierissimo.	!
.	28gg#\	.
.	28ff##X\	.
.	28gg#\	.
.	28ee#X\	.
.	28ddd#\JJ	.
!	!LO:TUP:a:problem=klamra łukowa	!
4e 4c# 4B 4G#\	24ccc#\LL	.
.	24ee#\	.
.	24dd#\	.
.	24bb\	.
.	24gg#\	.
.	24b\JJ	.
!	!LO:TUP:a:problem=klamra łukowa	!
4FF#/	24a#X\LL	.
.	24ff##\	.
.	24ee#X\	.
.	24g#\	.
.	24gn\	.
.	24een\JJ	.
!	!LO:TUP:a:problem=klamra łukowa	!
4A#X 4F#\	24dd#\LL	.
.	24f#\	.
.	24e#X\	.
.	24dd#\	.
.	24cc#\	.
.	24en\JJ	.
!!LO:LB:g=original
=33	=33	=33
*	*^	*
*xywh-7:413,2332,2497,612	*xywh-7:413,2332,2497,612	*xywh-7:413,2332,2497,612	*
*ped	*	*	*
8.BBB/L	8d#/	2.ryy	<
.	8r	.	.
!LO:TUP:b:problem=klamra łukowa	!	!	!
48FF#/LL	.	.	.
48BB/	.	.	.
48F#/JJJ	.	.	.
[4B\	8.r	.	.
!	!LO:TUP:b	!	!
.	(<48c#/LLL	.	.
.	48f#/	.	.
.	48cc#/JJJ	.	.
*Xped	*	*	*
8B\L]	8ff#'\)	.	[
8A#X\	8r	.	.
8G#\	4e#X/	8c#X\L	>
8Gn\J	.	8B\J	]
=34	=34	=34	=34
*^	*	*	*
*	*xywh-7:413,2332,2497,612	*	*	*
*ped	*	*	*	*
8.FF#/L	2.ryy	8f# 8A#X/	2.ryy	.
.	.	8r	.	.
!LO:TUP:b:problem=klamra łukowa	!	!LO:TX:b:i:t=perdendosi.	!	!
48C#/LL	.	.	.	.
48F#/	.	.	.	.
48c#/JJJ	.	.	.	.
[4f#\	.	8.r	.	.
!	!	!LO:TUP:a	!	!
.	.	(48b\LLL	.	.
.	.	48ee\	.	.
.	.	48bb\JJJ	.	.
*Xped	*	*	*	*
8f#\L]	.	8eee'\)	.	.
[<8F#\J	.	8r	.	.
4e/	4F#\]	8dd#/L	4a#X\	.
.	.	8cc#/J	.	.
*v	*v	*	*	*
=35	=35	=35	=35
*ped	*	*	*
8.GG#/L	8b 8d#/	2.ryy	.
.	8r	.	.
!LO:TUP:b:problem=klamra łukowa	!	!	!
48D#/LL	.	.	.
48G#/	.	.	.
48d#/JJJ	.	.	.
[4g#\	8.r	.	.
!	!LO:TUP:a	!	!
.	(48a#X\LLL	.	.
.	48dd#\	.	.
.	48aa#X\JJJ	.	.
*Xped	*	*	*
8g#\L]	8ddd#'\)	.	.
8f##X\	8r	.	.
8e#X\	4cc##X/	8a#\L	.
8en\J	.	8g#\J	.
!!LO:LB:g=original
=36	=36	=36	=36
*	*	*	*^
*xywh-7:395,2924,2585,698	*xywh-7:395,2924,2585,698	*xywh-7:395,2924,2585,698	*	*
*ped	*	*	*	*
8.DD#/L	8dd# 8f##X/	2.ryy	<	.
.	8r	.	.	.
!LO:TUP:b:problem=klamra łukowa	!	!	!	!LO:HP:t=crescendo.
48AA#X/LL	.	.	.	<
48D#/	.	.	.	.
48A#X/JJJ	.	.	.	.
[4d#\	8.r	.	.	.
!	!LO:TUP:b:problem=klamra łukowa	!	!	!
.	48f##X/LLL	.	.	.
.	48a#X/	.	.	.
.	48dd#/JJJ	.	.	.
*Xped	*	*	*	*
8d#\]	8aa#X'\	.	[	.
4.dn\	8r	.	.	.
.	4b#X/	8g#\L	>	.
.	.	8f#X\J	]	.
*	*	*	*v	*v
=37	=37	=37	=37
*ped	*	*	*
8.CC#/L	8cc# 8e#X/	2.ryy	<
.	8r	.	.
!LO:TUP:b:problem=klamra łukowa	!	!	!
48GG#/LL	.	.	.
48C#/	.	.	.
48G#/JJJ	.	.	.
[4c#\	8.r	.	.
!	!LO:TUP:b:problem=klamra łukowa	!	!
.	48e#/LLL	.	[
.	48g#/	.	.
.	48cc#/JJJ	.	.
*Xped	*	*	*
8c#\]	8gg#'\	.	.
4.cn\	8r	.	.
.	4a#X/	8f#\L	>
.	.	8en\J	]]
*	*v	*v	*
=38	=38	=38
*ped	*	*
!	!LO:TX:b:i:t=rallentando.	!
8.BBB/L	8b 8d#/	<
.	8r	.
!LO:TUP:b:problem=klamra łukowa	!	!
48FF#/LL	.	.
48BB/	.	.
48F#/JJJ	.	.
2.B;\	8.r	[
.	[[48d#/LLL	>
.	[[48an/	.
.	[>48b/JJJ	.
*Xped	*	*
.	2ff# 2b] 2a]] 2d#;/]]	]
!!LO:PB:g=original
=39	=39	=39
*xywh-8:497,439,2594,877	*xywh-8:497,439,2594,877	*
*ped	*	*
!	!LO:TX:a:B:t=a tempo.	!
4EE/	2ee\	p
*Xped	*	*
4g# 4B\	.	.
*ped	*	*
4DD#/	4.b\	.
*Xped	*	*
4f# 4B\	.	.
.	8a/	.
=40	=40	=40
*ped	*	*
4EE/	2g#/	.
*Xped	*	*
4e 4B\	.	.
.	8qqe/L	.
.	8qqg#/	.
.	8qqb/	.
.	8qqee/	.
.	8qqgg#/J	.
*ped	*	*
4BBB#X/	4.gg#\	.
*Xped	*	*
4f# 4d# 4A\	.	.
.	8ff#\	.
=41	=41	=41
*ped	*	*
4CC#/	2ee\	.
*Xped	*	*
4e 4c# 4G#\	.	.
*ped	*Xtuplet	*
4AAA/	12eeM\L	.
.	12dd#\	.
.	12ee\J	.
*Xped	*	*
4e 4cn 4A\	12gg#\L	.
.	12ff#\	.
.	12a\J	.
=42	=42	=42
*ped	*	*
4EE/	2g#/	.
4e 4B 4E\	.	.
.	8qqe/L	.
.	8qqg#/	.
.	8qqb/	.
.	8qqee/	.
.	8qqgg#/J	.
4GG#/	4.bb\	.
*Xped	*	*
4e 4B 4G#\	.	.
.	8ee\	.
=43	=43	=43
*	*^	*
*	*	*xywh-8:497,439,2594,877	*
4FF#/	8dd#/	8dd#\L	.
.	4aa/	8cc#\	>
4B 4F#\	.	8b\	.
.	8dd#/	8a\J	]
4CC#/	2ee/	8a\L	.
.	.	8g#\	.
4c# 4G# 4C#\	.	8f#\	.
.	.	8e\J	.
!!LO:LB:g=original
=44	=44	=44	=44
*xywh-8:513,1245,2581,769	*xywh-8:513,1245,2581,769	*xywh-8:513,1245,2581,769	*
4GG#/	8dd#/	8dd#\L	.
.	4bb/	8ddn\	sf
4e#X 4B 4G#\	.	8cc#\	<
.	8ee#X/	8b\J	.
4FF#/	4ff#/	8b\L	.
.	.	8a#X\	.
4en 4c# 4A#X 4F#\	4cc#/	8g#\	.
.	.	8f#\J	[
=45	=45	=45	=45
4BBB/	4ee/	8g#^\L	.
.	.	8f#\J	.
!	!	!LO:TX:b:t=P:problem=diminuendolike accent	!
4B 4E\	[4g#/	8f#^\L	.
.	.	8e\J	.
4BBB/	8g#/L]	2e\	.
.	8an/	.	.
4G# 4BB\	8b/	.	.
.	8b#X/J	.	.
=46	=46	=46	=46
4BBB/	4cc#/	(8e^\L	.
.	.	8d#\J)	.
!	!	!LO:TX:b:t=P:problem=diminuendolike accent	!
4F# 4BB\	[4f#/	(8d#^L	.
.	.	8c#\J)	.
4BBB/	8f#/L]	4B\	>
.	8g#/	.	.
4F# 4BB\	8a/	4d#\	.
.	8bn/J	.	]
*	*v	*v	*
=47	=47	=47
.	8qqB/L	.
.	8qqe/	.
.	8qqb/J	.
4Cn/	8ee\	pp
.	4a^>/	.
4e 4A 4E\	.	.
.	[8gn/	.
4C/	8g/L]	.
.	8f#/	.
4dn 4A 4F#\	8g/	.
.	8a/J	.
=48	=48	=48
.	8qa/	.
4BB/	8ddn\	.
.	4gn^>/	.
4dn 4Gn 4Dn\	.	.
.	[8f#/	.
4BB/	8f#/L]	.
.	8e#X/	.
4c# 4G#X 4E#X\	8f#/	.
.	8g#X/J	.
!!LO:LB:g=original
=49	=49	=49
*xywh-8:513,2039,2556,731	*xywh-8:513,2039,2556,731	*
.	8qg#/	.
!	!LO:TX:b:i:t=accelerando.	!
4AA/	8cc#\	.
.	4f#^>/	.
4c# 4F# 4C#\	.	.
.	[8en/	.
4AA/	8e/L]	.
.	8d#/	.
4B 4F# 4D#X\	8e/	.
.	8f#/J	.
=50	=50	=50
.	8qf#/	<
4GG#/	8b\	.
.	4e/	.
4B 4E\	.	.
.	[8b\	.
4GGn/	8b\]	.
.	4dd#\	.
4e 4B 4Gn\	.	.
.	[8ee\	.
=51	=51	=51
4FF#/	8ee\]	.
.	4a/	.
4e 4cn 4A 4F#\	.	.
!	!LO:TX:b:i:t=ritenuto poco a poco.	!
.	4aa\	.
4BBB#X/	.	.
.	4dd#\	.
4f# 4d# 4A\	.	.
.	[8ddd#\	.
=52	=52	=52
*	*^	*
*	*	*xywh-8:513,2039,2556,731	*
4C# 4CC#/	8ddd#/]	4ee\	.
.	4ccc#/	.	.
4e#X 4d# 4Bn 4G#\	.	4ddn\	[
.	8gg#/	.	.
4FF#/	8bb/L	4cc#\	sf
.	8aa/	.	.
4en 4cn 4A 4F#;<\	8gg#/	4a\	sf
.	8ff#;/J	.	.
=53	=53	=53	=53
!	!LO:TX:a:B:t=a tempo.	!LO:TX:b:t=P:problem=diminuendolike accent	!
4BBB/	4ee/	(8a^\L	>
.	.	8g#\J)	.
!	!	!LO:TX:b:t=P:problem=diminuendolike accent	!
4B 4E\	2b/	(8g#^\L	.
.	.	8gn\J)	.
4BBB/	.	(8g^\L	.
.	.	8f#\J)	.
4A#X 4BB\	4cc#/	(8f#^\L	.
.	.	8e\J)	.
!!LO:LB:g=original
=54	=54	=54	=54
*xywh-8:528,2746,2585,967	*xywh-8:528,2746,2585,967	*xywh-8:528,2746,2585,967	*
!	!LO:TX:a:i:t=morendo.	!	!
4BBB/	4cc#/	(8e^\L	.
.	.	8d#\J)	.
4An 4BB\	[4f#/	(8d#^\L	.
.	.	8c#\J)	]
4BBB/	8f#/L]	4B\	pp
.	8g#X/	.	.
4F# 4BB\	8a/	4d#\	.
.	8b/J	.	.
=55	=55	=55	=55
*ped	*	*	*
8.EE/L	8e 8G#/	2ryy	.
.	8r	.	.
!LO:TUP:b:problem=klamra łukowa	!	!	!
48BB/LL	.	.	.
48E/	.	.	.
48F#/JJJ	.	.	.
*clefG2	*	*	*
8.B/L	4r	.	.
!LO:TUP:b:problem=klamra łukowa	!	!	!LO:HP:t=crescendo un poco
48e/LL	.	.	<
48f#/	.	.	.
*Xped	*	*	*
48g#/JJJ	.	.	.
*ped	*	*	*
8.f#/L	16r	16ryy	.
.	16a/LL	[8.a\	<
.	16b/	.	.
!LO:TUP:b:problem=klamra łukowa	!	!	!
48d#/LL	16ccn/JJ	.	.
48cn/	.	.	.
48A/JJJ	.	.	.
*clefF4	*	*	*
8.F#\L	8ff# 8a/]	4ryy	[
.	16r	.	.
!LO:TUP:a:problem=klamra łukowa	!LO:TX:t=P:problem=cross-measure beam	!	!
48D#\LL	(16ccKL (16a/	.	>
48Cn\	.	.	.
*Xped	*	*	*
48AA\JJJ	.	.	.
=56	=56	=56	=56
*ped	*	*	*
8.EE/L	8bJ 8g#/))	2ryy	]
.	8r	.	.
!LO:TUP:b:problem=klamra łukowa	!	!	!
48BB/LL	.	.	.
48E/	.	.	.
48G#/JJJ	.	.	.
*clefG2	*	*	*
8.B/L	4r	.	.
!LO:TUP:b:problem=klamra łukowa	!	!	!
48e/LL	.	.	.
48f#/	.	.	.
*Xped	*	*	*
48g#/JJJ	.	.	.
*ped	*	*	*
8.f#/L	16r	16ryy	.
.	16a/LL	[8.a\	<
.	16b/	.	.
!LO:TUP:b:problem=klamra łukowa	!	!	!
48d#/LL	16ccn/JJ	.	.
48cn/	.	.	.
48A/JJJ	.	.	.
*clefF4	*	*	*
8.F#\L	8ff# 8a/]	4ryy	[
.	16r	.	>
!LO:TUP:a:problem=klamra łukowa	!LO:TX:t=P:problem=cross-measure beam	!	!
48D#\LL	(16ccKL 16a/	.	.
48Cn\	.	.	.
*Xped	*	*	*
48AA\JJJ	.	.	]
!!LO:PB:g=original
=57	=57	=57	=57
*xywh-9:255,396,2589,896	*xywh-9:255,396,2589,896	*xywh-9:255,396,2589,896	*
*ped	*	*	*
8.EE/L	8bJ 8g#/)	2.ryy	<
.	8r	.	.
!LO:TUP:b:problem=klamra łukowa	!	!	!
48BB/LL	.	.	.
48E/	.	.	.
48B/JJJ	.	.	.
[4e\	8.r	.	.
*	*tuplet	*	*
!	!LO:TUP:b	!	!
.	(48f#/LLL	.	.
.	48b/	.	[
.	48ff#/JJJ	.	.
*Xped	*	*	*
8e\L]	8bb'/)	.	.
8d#\	8r	.	.
8c#\	4a#X/	8f#\L	>
8cn\J	.	8e\J	]]
=58	=58	=58	=58
*ped	*	*	*
8.BB/L	8b 8d#/	2.ryy	.
.	8r	.	.
!LO:TX:t=P:problem=mixed beam	!	!	!
!LO:TUP:b:problem=klamra łukowa	!	!	!
48F#/LL	.	.	.
48B/	.	.	.
48f#>\JJJ	.	.	.
!	!	!	!LO:HP:t=diminuendo.
[4b>\	8.r	.	>
!	!LO:TUP:b	!	!
.	(>48ee/LLL	.	.
.	48aa/	.	.
.	48eee/JJJ	.	.
*Xped	*	*	*
8b>\L]	8aaa'/)	.	.
[8B>\J	8r	.	.
4a> 4B>\]	8gg#/L	4dd#/	pp
.	8ff#/J	.	.
!!LO:LB:g=original
=59	=59	=59	=59
*xywh-9:228,1268,2598,806	*xywh-9:228,1268,2598,806	*xywh-9:228,1268,2598,806	*
*ped	*	*	*
8.EE/L	8ee 8g#/	2ryy	]
.	8r	.	.
!LO:TUP:b:problem=klamra łukowa	!	!	!
48BB/LL	.	.	.
48E/	.	.	.
48G#/JJJ	.	.	.
!LO:TX:t=P:problem=mixed beam	!	!	!
8.B/L	4r	.	.
!LO:TUP:a:problem=klamra łukowa	!	!	!
48e>\LL	.	.	.
48f#>\	.	.	.
*Xped	*	*	*
48g#>\JJJ	.	.	.
*ped	*	*	*
!LO:TX:t=P:problem=mixed beam	!	!	!
8.f#>\L	16rcc	16ryy	.
!	!	!	!LO:HP:a
.	16a/LL	[8.a\	<
.	16b/	.	.
!LO:TUP:b:problem=klamra łukowa	!	!	!
48d#>\LL	16ccn/JJ	.	.
48cn/	.	.	.
48A/JJJ	.	.	.
!	!	!	!LO:HP:t=crescendo.
8.F#\L	8ff# 8a\]	4ryy	[ <
.	16r	.	.
!LO:TUP:a:problem=klamra łukowa	!	!	!
48D#\LL	16cc 16a^>/	.	.
48Cn\	.	.	.
*Xped	*	*	*
48AA\JJJ	.	.	.
=60	=60	=60	=60
*ped	*	*	*
8.EE/L	8b 8g#/	2ryy	.
.	8r	.	.
!LO:TUP:b:problem=klamra łukowa	!	!	!
48BB/LL	.	.	.
48E/	.	.	.
48G#/JJJ	.	.	.
8.B/L	4r	.	.
!LO:TUP:b:problem=klamra łukowa	!	!	!
48e/LL	.	.	.
48f#/	.	.	.
*Xped	*	*	*
48g#/JJJ	.	.	.
*ped	*	*	*
8.f#/L	16r	16ryy	.
.	16a/LL	[8.a\	<
.	16b/	.	.
!LO:TUP:b:problem=klamra łukowa	!	!	!
48d#/LL	16ccn/JJ	.	.
48cn/	.	.	.
48A/JJJ	.	.	.
8.F#/L	8ff# 8a/]	4ryy	[
.	16r	.	.
!LO:TUP:b:problem=klamra łukowa	!LO:TX:t=P:problem=cross-measure beam	!	!
48D#/LL	(16ccKL 16a/	.	>
48Cn/	.	.	.
*Xped	*	*	*
48AA/JJJ	.	.	]]
!!LO:LB:g=original
=61	=61	=61	=61
*xywh-9:301,1952,2607,812	*xywh-9:301,1952,2607,812	*xywh-9:301,1952,2607,812	*
*ped	*	*	*
8.EE/L	8bJ 8g#/)	2.ryy	<
.	8r	.	.
!LO:TUP:b:problem=klamra łukowa	!	!	!
48BB/LL	.	.	.
48E/	.	.	.
48B/JJJ	.	.	.
[4e\	8.r	.	.
!	!LO:TUP:b	!	!
.	(48f#/LLL	.	.
.	48b/	.	.
.	48ff#/JJJ	.	[
*Xped	*	*	*
8e\L]	8bb'/)	.	.
8d#\	8r	.	.
8c#\	4a#X/	8f#\L	>
8cn\J	.	8e\J	]]
=62	=62	=62	=62
*ped	*	*	*
8.BB/L	8b 8d#^/	2.ryy	.
.	8r	.	.
!LO:TUP:b:problem=klamra łukowa	!	!	!
48F#/LL	.	.	.
48B/	.	.	.
48f#/JJJ	.	.	.
[4b>\	8.r	.	.
!	!LO:TUP:b	!	!
.	(>48ee/LLL	.	.
.	48aa/	.	.
.	48eee/JJJ	.	.
*Xped	*	*	*
8b>\L]	8aaa'/)	.	.
[8B>\J	8r	.	.
4a> 4B>^\]	8gg#/L	4dd#/	.
.	8ff#/J	.	.
=63	=63	=63	=63
*ped	*	*	*
8.CCn/L	8ee 8g#/	2.ryy	mf
.	8r	.	.
!LO:TUP:b:problem=klamra łukowa	!	!	!
48GG#/LL	.	.	<
48E/	.	.	.
48G#/JJJ	.	.	.
[4e\	8.r	.	.
!	!LO:TUP:a	!	!
.	(48ccn\LLL	.	.
.	48ee\	.	.
.	48gg#\JJJ	.	.
*Xped	*	*	*
8e\]	8eee'\)	.	[
4.cn\	8r	.	.
!	!	!LO:TX:t=P:problem=diminuendolike accent	!
.	4an/	8f#^\L	sf
.	.	8e\J	.
!!LO:LB:g=original
=64	=64	=64	=64
*xywh-9:348,2715,2526,941	*xywh-9:348,2715,2526,941	*xywh-9:348,2715,2526,941	*
*ped	*	*	*
8.BB/L	8b 8d#/	2.ryy	.
.	8r	.	.
!LO:TUP:b:problem=klamra łukowa	!	!	!
48F#/LL	.	.	.
!	!	!	!LO:HP:t=dimin.
48B/	.	.	>
48f#/JJJ	.	.	.
[4b>\	8.r	.	.
!	!LO:TUP:b	!	!
.	(>48ee/LLL	.	.
.	48aa/	.	.
.	48cccn/JJJ	.	.
*Xped	*	*	*
8b>\L]	8aaa'/)	.	.
[8B>\J	8r	.	.
4b> 4B>\]	8gg#/L	4dd#/	pp
.	8ff#/J	.	.
*	*v	*v	*
=65	=65	=65
*ped	*	*
!	!LO:TX:b:i:t=perdendosi. poco a poco	!
(8.EE/L	[2.ee\	.
*rscale:2	*	*
64BB/LLL	.	.
64E/	.	.
64G#/	.	.
64B/JJJJ	.	.
*rscale:1	*	*
*Xped	*	*
4e\)	.	.
*ped	*	*
2f#: 2c#: 2An: 2E:\	.	.
.	8qqee\L]	>
.	8qqff#\	.
.	8qqee\	.
.	8qqdd#\	.
.	8qqee\	.
.	8qqeee\	.
.	8qqcccn\	.
.	8qqaa\	.
.	8qqff#\	.
.	8qqee\	.
.	8qqff#\	.
.	8qqee\	.
.	8qqdd#\	.
.	8qqee\J	.
*	*Xtuplet	*
.	12gg#\L	.
.	12ff#\	.
*Xped	*	*
.	12a\J	]
=66	=66	=66
*ped	*	*
2b: 2e: 2B: 2E:\	2g#/	.
*Xped	*	*
2G# 2E 2BB 2EE;/	2ryy/	ppp
==	==	==
*-	*-	*-
!!!system-decoration: {(*)}
!!!RDF**kern: > = above
!!!RDF**kern: < = below
!!!ENC: Andrzej Gręziak
!!!END: 2022-03-14
!!!ENC: Andrzej Kubiczek
!!!END: 2022-03-19
!!!ENC-iiif: Mateusz Mrugas
!!!END-iiif: 2022-08-17
!!!YEC: Copyright 2022 Narodowy Instytut Fryderyka Chopina (https://polishscores.org)
!!!YEM: License CC-BY-4.0 (https://creativecommons.org/licenses/by/4.0)
